icon/pk/lotion.svg

<svg viewBox="0 0 48 48" fill="none" xmlns="http://www.w3.org/2000/svg" height="1em" width="1em">
  <rect x="17" y="37" width="14" height="7" fill="#2F88FF" stroke="black" stroke-width="4" stroke-linecap="round" stroke-linejoin="round"/>
  <path d="M36 4H12C12 4 12 12 13 21C14 30 17 37 17 37H31C31 37 34 30 35 21C36 12 36 4 36 4Z" stroke="black" stroke-width="4" stroke-linecap="round" stroke-linejoin="round"/>
  <path d="M20.643 21.8886C22.0743 20.0081 23.1776 17.4103 23.774 16C24.8177 17.4103 27.084 20.9484 27.7997 22.8288C28.6942 25.1793 26.4578 28 23.774 28C21.0903 28 18.8538 24.2391 20.643 21.8886Z" stroke="black" stroke-width="4" stroke-linecap="round" stroke-linejoin="round"/>
  <path d="M13 10L35 10" stroke="black" stroke-width="4" stroke-linecap="round" stroke-linejoin="round"/>
</svg>

<svg width="48" height="48" fill="none" xmlns="http://www.w3.org/2000/svg"><path fill="#2F88FF" stroke="#000" stroke-width="4" stroke-linecap="round" stroke-linejoin="round" d="M17 37h14v7H17z"/><path d="M36 4H12s0 8 1 17 4 16 4 16h14s3-7 4-16 1-17 1-17Z" stroke="#000" stroke-width="4" stroke-linecap="round" stroke-linejoin="round"/><path d="M20.643 21.889c1.431-1.88 2.535-4.479 3.131-5.889 1.044 1.41 3.31 4.948 4.026 6.829.894 2.35-1.342 5.171-4.026 5.171-2.684 0-4.92-3.76-3.131-6.111ZM13 10h22" stroke="#000" stroke-width="4" stroke-linecap="round" stroke-linejoin="round"/></svg>
